static/assets/images/exchanges/bittrex.svg

<svg width="256" height="256" viewBox="0 0 256 256" fill="none" xmlns="http://www.w3.org/2000/svg">
<path fill-rule="evenodd" clip-rule="evenodd" d="M255.82 181.573V0H74.2472V53.7528H107.326V33.2584H222.562V148.494H181.573V74.427H0V256H181.573V202.247H148.494V222.742H33.4382V107.506H74.427V181.753H255.82V181.573ZM107.506 148.315H148.494V107.326H107.506V148.315Z" fill="#13D8FA"/>
</svg>

<svg xmlns="http://www.w3.org/2000/svg" fill="none" viewBox="0 0 256 256"><path fill="#13D8FA" fill-rule="evenodd" d="M255.82 181.573V0H74.247v53.753h33.079V33.258h115.236v115.236h-40.989V74.427H0V256h181.573v-53.753h-33.079v20.495H33.438V107.506h40.989v74.247H255.82zm-148.314-33.258h40.988v-40.989h-40.988z" clip-rule="evenodd"/></svg>
